dist/assets/img/clients/3.svg

<svg width="215" height="55" viewBox="0 0 215 55" fill="none" xmlns="http://www.w3.org/2000/svg">
<path fill-rule="evenodd" clip-rule="evenodd" d="M29.2518 17.1166C26.3834 17.1166 23.9575 18.0877 22.0601 19.7644C20.118 21.4411 19.1917 24.0889 19.1917 27.1779C19.1917 29.8245 19.8973 32.2505 21.3534 34.1467C22.7657 36.0452 25.4123 37.2806 28.5451 37.2806C32.3834 37.2806 36.4424 35.6039 40.2808 32.693L39.7958 51.8835C34.5014 53.3407 30.2206 54.267 27.3097 54.267C23.0301 54.267 18.4413 53.3395 14.1616 51.3985C9.83834 49.5024 6.21949 46.149 3.83834 42.3106C1.45604 38.4723 0 33.1779 0 27.4411C0 23.1189 0.971077 18.5738 2.86841 14.5148C4.80942 10.411 7.89733 6.83702 12.0023 4.41105C16.0613 1.8081 21.3557 0.352051 27.312 0.352051C31.1503 0.352051 35.7391 1.32198 40.0187 2.99982V22.1479C36.9274 18.7933 33.089 17.1166 29.2518 17.1166ZM45.5315 53.0752V1.32198H64.4589V53.0752H45.5315ZM69.7544 53.0752V1.32198H88.4611V36.5301H106.419V53.0752H69.7544ZM111.713 53.0752V1.32198H130.376V36.5301H148.377V53.0752H111.713ZM153.628 53.0752V1.32198H172.555V53.0752H153.628ZM186.011 53.0752V18.3084H175.466V1.32198H215V18.3084H204.676V53.0752H186.011Z" fill="white"/>
</svg>

<svg width="215" height="55" fill="none" xmlns="http://www.w3.org/2000/svg"><path fill-rule="evenodd" clip-rule="evenodd" d="M29.252 17.117c-2.869 0-5.294.97-7.192 2.647-1.942 1.677-2.868 4.325-2.868 7.414 0 2.646.705 5.073 2.161 6.969 1.413 1.898 4.06 3.134 7.192 3.134 3.838 0 7.897-1.677 11.736-4.588l-.485 19.19c-5.295 1.458-9.575 2.384-12.486 2.384-4.28 0-8.869-.928-13.148-2.869-4.324-1.896-7.943-5.249-10.324-9.087C1.456 38.472 0 33.178 0 27.44c0-4.322.971-8.867 2.868-12.926C4.81 10.41 7.898 6.837 12.002 4.41c4.06-2.603 9.354-4.059 15.31-4.059 3.838 0 8.427.97 12.707 2.648v19.148c-3.092-3.355-6.93-5.031-10.767-5.031zm16.28 35.958V1.322h18.927v51.753H45.53zm24.222 0V1.322h18.707V36.53h17.958v16.545H69.754zm41.959 0V1.322h18.663V36.53h18.001v16.545h-36.664zm41.915 0V1.322h18.927v51.753h-18.927zm32.383 0V18.308h-10.545V1.322H215v16.986h-10.324v34.767h-18.665z" fill="#fff"/></svg>
